!!!COM: Corelli, Arcangelo
!!!OTL: 
!!!ONM: Opus 6, No. 9
!!!OMV: 1
!!!CDT: 1653/2/17/-1713/1/8/
!!!OCY: Italia
**kern	**kern	**kern	**kern	**kern	**kern	**kern
*clefC	*clefG	*clefG	*clefG	*clefC	*clefG	*clefG
*k[b-]	*k[b-]	*k[b-]	*k[b-]	*k[b-]	*k[b-]	*k[b-]
*F:	*F:	*F:	*F:	*F:	*F:	*F:
*M4/4	*M4/4	*M4/4	*M4/4	*M4/4	*M4/4	*M4/4
=1	=1	=1	=1	=1	=1	=1
4.F	4.f	4.a	4.cc	4.F	4.a	4.cc
16r	16r	16r	16r	16r	16r	16r
16F	16f	16a	16cc	16F	16a	16cc
4.E	4.c	4.g	4.cc	4.E	4.g	4.cc
16r	16r	16r	16r	16r	16r	16r
16F	16c	16a	16cc	16F	16a	16cc
=2	=2	=2	=2	=2	=2	=2
8.D	8.f	8.f	8.cc	8.D	8.f	8.cc
16D	16g	16f	16f	16D	16f	16f
8.G	8.g	8.f	8.b-	8.G	8.f	8.b-
16G	16g	16g	16b-	16G	16g	16b-
4.C	4.g	4.e	4.b-	4.C	4.e	4.b-
16r	16r	16r	16r	16r	16r	16r
16F	16f	16cc	16a	16F	16cc	16a
=3	=3	=3	=3	=3	=3	=3
8.BB-	8.f	4.dd	8.a	8.BB-	4.dd	8.a
16BB-	16f	.	16d	16BB-	.	16d
8.B-	8.d	.	8.g	8.B-	.	8.g
.	.	16r	.	.	16r	.
16B-	16d	16dd	16f	16B-	16dd	16f
4B-	4.g	8cc	4e	4B-	8cc	4e
.	.	8c	.	.	8c	.
4A	.	[4f	8r	4A	[4f	8r
.	16r	.	8f	.	.	8f
.	16c	.	.	.	.	.
=4	=4	=4	=4	=4	=4	=4
4G	8.d	4f]	8b-	4G	4f]	8b-
.	.	.	16cc	.	.	16cc
.	16B-	.	16dd	.	.	16dd
4C	4c	4e	8.cc	4C	4e	8.cc
.	.	.	16b-	.	.	16b-
4.F	4.c	4.f	4.a	4.F	4.f	4.a
16r	16r	16r	16r	16r	16r	16r
16F	16f	16a	16cc	16F	16a	16cc
=5	=5	=5	=5	=5	=5	=5
4E	8.g	8.g	8.cc#	4E	8.g	8.cc#
.	16g	16g	16cc#	.	16g	16cc#
4D	8.a	8.f	8.dd	4D	8.f	8.dd
.	16a	16f	16dd	.	16f	16dd
4.C#	4.a	4.a	4ee	4.C#	4.a	4ee
.	.	.	16r	.	.	16r
.	.	.	16ee	.	.	16ee
16r	16r	16r	16ff	16r	16r	16ff
16C#	16a	16ee	16gg	16C#	16ee	16gg
=6	=6	=6	=6	=6	=6	=6
4D	4a	4a	8.ff	4D	4a	8.ff
.	.	.	16dd	.	.	16dd
4G	4g	8r	8.bb-	4G	8r	8.bb-
.	.	8dd	.	.	8dd	.
.	.	.	16bb-	.	.	16bb-
4C	4g	4ee	8bb-	4C	4ee	8bb-
.	.	.	8ee	.	.	8ee
4F	8r	8r	[4aa	4F	8r	[4aa
.	8f	8a	.	.	8a	.
=7	=7	=7	=7	=7	=7	=7
2BB-	4d	8dd	8aa]	2BB-	8dd	8aa]
.	.	16ee	16gg	.	16ee	16gg
.	.	16ff	16ff	.	16ff	16ff
.	8r	8.ee	8.gg	.	8.ee	8.gg
.	8d	.	.	.	.	.
.	.	16dd	16aa	.	16dd	16aa
8.AA	4e	4cc#	4aa	8.AA	4cc#	4aa
16A	.	.	.	16A	.	.
8.A	4r	8r	8r	8.A	8r	8r
.	.	8ee	8cc#	.	8ee	8cc#
16G	.	.	.	16G	.	.
=8	=8	=8	=8	=8	=8	=8
4.F#	4.d	4.a	8.dd	4.F#	4.a	8.dd
.	.	.	16aa	.	.	16aa
.	.	.	8.cc	.	.	8.cc
8F#	8d	8aa	.	8F#	8aa	.
.	.	.	16cc	.	.	16cc
8.G	4d	4dd	8cc	8.G	4dd	8cc
.	.	.	8b	.	.	8b
16A	.	.	.	16A	.	.
8.G	4r	8r	8r	8.G	8r	8r
.	.	8dd	8b	.	8dd	8b
16F	.	.	.	16F	.	.
=9	=9	=9	=9	=9	=9	=9
4.E	4.c	4.g	8cc	4.E	4.g	8cc
.	.	.	8gg	.	.	8gg
.	.	.	8.b-	.	.	8.b-
8E	8c	8gg	.	8E	8gg	.
.	.	.	16b-	.	.	16b-
8.F	4c	4cc	8b-	8.F	4cc	8b-
.	.	.	8a	.	.	8a
16F	.	.	.	16F	.	.
8.E	4r	8.r	8.r	8.E	8.r	8.r
16D	.	16dd	16aa	16D	16dd	16aa
=10	=10	=10	=10	=10	=10	=10
4.C#	4a	4ee	8.aa	4.C#	4ee	8.aa
.	.	.	16gg	.	.	16gg
.	4a	4ee	8.gg	.	4ee	8.gg
8C#	.	.	.	8C#	.	.
.	.	.	16ff	.	.	16ff
8.D	4a	4a	4ff	8.D	4a	4ff
16E	.	.	.	16E	.	.
8.D	4r	8.r	16r	8.D	8.r	16r
.	.	.	16dd	.	.	16dd
.	.	.	16ee	.	.	16ee
16C	.	16a	16ff	16C	16a	16ff
=11	=11	=11	=11	=11	=11	=11
4.BB	4g	4dd	8.gg	4.BB	4dd	8.gg
.	.	.	16ff	.	.	16ff
.	4g	4dd	8.ff	.	4dd	8.ff
8BB	.	.	.	8BB	.	.
.	.	.	16ee	.	.	16ee
8C	4g	8g	4ee	8C	8g	4ee
8c	.	8cc	.	8c	8cc	.
8A	8r	4ff	8r	8A	4ff	8r
8F	8f	.	8aa	8F	.	8aa
=12	=12	=12	=12	=12	=12	=12
8B-	4f	8r	4dd	8B-	8r	4dd
8A	.	8dd	.	8A	8dd	.
8B-	8r	4gg	8r	8B-	4gg	8r
8G	8g	.	8bb-	8G	.	8bb-
8c	4g	8r	4ee	8c	8r	4ee
8B-	.	8ee	.	8B-	8ee	.
8c	8r	4aa	8r	8c	4aa	8r
8A	8a	.	8ccc	8A	.	8ccc
=13	=13	=13	=13	=13	=13	=13
8d	4a	8r	4ff	8d	8r	4ff
8c	.	8ff	.	8c	8ff	.
8d	4f	8.bb-	8r	8d	8.bb-	8r
8B-	.	.	8ddd	8B-	.	8ddd
.	.	16aa	.	.	16aa	.
4c	4cc	4gg	4ee	4c	4gg	4ee
8r	8r	8r	8r	8r	8r	8r
8A	8f	8aa	8ccc	8A	8aa	8ccc
=14	=14	=14	=14	=14	=14	=14
8B-	4f	8dd	4bb-	8B-	8dd	4bb-
8c	.	8ee	.	8c	8ee	.
8d	8r	2ff	8aa	8d	2ff	8aa
8B-	8d	.	8gg	8B-	.	8gg
8c	4c	.	4aa	8c	.	4aa
8B-	.	.	.	8B-	.	.
8c	8r	8.ff	4gg	8c	8.ff	4gg
8C	8c	.	.	8C	.	.
.	.	16ee	.	.	16ee	.
=15	=15	=15	=15	=15	=15	=15
4F	4A	4ff	4ff	4F	4ff	4ff
4E	4c	4g	4cc	4E	4g	4cc
4D	4d	4f	4b-	4D	4f	4b-
4C	4A	4e	4a	4C	4e	4a
=16	=16	=16	=16	=16	=16	=16
4BB-	4B-	4d	4dd	4BB-	4d	4dd
4AA	4f	4f	4cc	4AA	4f	4cc
4GG	4g	4e	4b-	4GG	4e	4b-
4FF	4c	4f	4a	4FF	4f	4a
=17	=17	=17	=17	=17	=17	=17
4C	4c	4e	4g	4C	4e	4g
8r	8r	8r	8r	8r	8r	8r
8AA	8f	8a	16ff	8AA	8a	16ff
.	.	.	16cc	.	.	16cc
4BB-	8f	8d	8.dd	4BB-	8d	8.dd
.	8g	8e	.	.	8e	.
.	.	.	16cc	.	.	16cc
4FF	8a	[4f	8b-	4FF	[4f	8b-
.	8b-	.	8a	.	.	8a
=18	=18	=18	=18	=18	=18	=18
2C	4cc	4f]	4a	2C	4f]	4a
.	4c	4e	4g	.	4e	4g
2FF	2c	2f	2f	2FF	2f	2f
==	==	==	==	==	==	==
*-	*-	*-	*-	*-	*-	*-
!!!RWG: This file only contains pitch and duration data.
!!!RWG: Transposing instruments are not transposed.
!!!RWG: Durations of rests and tied notes may be interpreted.
!!!RWG: Key is interpreted using the Humdrum key tool.
!!!SCA: 
!!!YOR: Chrysander Edition
!!!AGN: concerto grosso
!!!AFT: stage1
!!!ENC: F. Bennion
!!!END: 1997/04/15
!!!AST: baroque
!!!YEC: Copyright 1994, Center for Computer Assisted Research in the Humanities
!!!YEM: Rights to all derivative electronic formats reserved.
!!!YEM: Refer to licensing agreement for further details.
!!!YEN: United States of America
!!!EED: W.B. Hewlett
!!!KEY: 115226753
!!!EMD: Converted from MuseData to Humdrum Aug 9, 1999, by Bret Aarden using muse2kern.
!!!VTS: 189505263
